X: 8285
T: Corner House, The
R: reel
M: 4/4
K: Adorian
|:EAAG A2Bd|egdB cBAG|DGGF G2 AB|c2 Bc AGED|
DAAG ABcd|eaag efge|d2 Bd edge|1 dBAG A2:|2 dBGB A2||
|:eaag a2 ga|bgab gedB|d2 Bd edBd|egde gedg|
eaag a2 ga|bgab gedB|d2 Bd eddg|dBAG A2:|

